X:325
T: Miss Hope's Favorite
N: O'Farrell's Pocket Companion v.4 (Sky ed. p.143)
N: "Scotch"
M: C
R: reel
L: 1/8
Q: 350
K: G
dc| BGG2 GFGE| DEGA B2AG| cAA2 ABAG| ABcd edeg |
BGG2 GFGE| DEGA B2AG| ABcd edeg |G<GBA G2 :|
G2| BGdG eGdG| BGdG edcB| cAeA fAeA| cAeA e2dc|
BGdG eGdG| BGdG edcB| ABcd edeg| G<GBA G2 :|
